Newaita-dark/actions/scalable/draw-polyline.svg

<?xml version="1.0" encoding="UTF-8"?>
<svg xmlns="http://www.w3.org/2000/svg" xmlns:xlink="http://www.w3.org/1999/xlink" width="512pt" height="512pt" viewBox="0 0 512 512" version="1.1">
<g id="surface1">
<path style=" stroke:none;fill-rule:evenodd;fill:rgb(67.058825%,27.843139%,73.725492%);fill-opacity:1;" d="M 22.335938 26.335938 L 22.335938 341.53125 L 107.011719 341.53125 L 107.011719 489.714844 L 495.480469 489.714844 L 168.183594 185.796875 L 168.183594 26.335938 Z M 52.921875 56.921875 L 137.597656 56.921875 L 137.597656 194.519531 L 418.082031 459.128906 L 391.621094 459.128906 L 359.867188 459.125 L 137.597656 459.125 L 137.597656 310.945312 L 52.921875 310.945312 Z M 52.921875 56.921875 "/>
</g>
</svg>

<svg xmlns="http://www.w3.org/2000/svg" width="512pt" height="512pt" viewBox="0 0 512 512"><path d="M22.336 26.336V341.53h84.676v148.184H495.48L168.184 185.797V26.336zm30.586 30.586h84.676V194.52l280.484 264.609h-26.46l-31.755-.004h-222.27v-148.18H52.923zm0 0" fill-rule="evenodd" fill="#ab47bc"/></svg>
